payu/img/payu_later_twisto_logo.svg

<?xml version="1.0" encoding="UTF-8"?>
<svg xmlns="http://www.w3.org/2000/svg" xmlns:xlink="http://www.w3.org/1999/xlink" height="25px" viewBox="0 0 225 70" version="1.1">
<defs>
<linearGradient id="linear0" gradientUnits="userSpaceOnUse" x1="145.2851" y1="1023.4291" x2="203.0005" y2="965.7137" gradientTransform="matrix(0.379566,0,0,-0.382625,-5.936843,390.117287)">
<stop offset="0" style="stop-color:rgb(50.980392%,73.72549%,0%);stop-opacity:0;"/>
<stop offset="1" style="stop-color:rgb(50.980392%,73.72549%,0%);stop-opacity:1;"/>
</linearGradient>
</defs>
<g id="surface1">
<path style=" stroke:none;fill-rule:nonzero;fill:rgb(30.980392%,0%,54.901961%);fill-opacity:1;" d="M 97.933594 39.519531 L 97.933594 28.691406 L 103.304688 28.691406 L 103.304688 23.183594 L 97.933594 23.183594 L 97.933594 16.453125 L 91.128906 16.453125 L 91.128906 23.183594 L 87.410156 23.183594 L 87.410156 28.691406 L 91.128906 28.691406 L 91.128906 40.410156 C 91.128906 45.914062 94.292969 48.351562 99.21875 48.351562 C 101.097656 48.351562 102.714844 48.023438 103.59375 47.582031 L 103.59375 41.515625 C 102.828125 42.074219 101.613281 42.40625 100.65625 42.40625 C 99.039062 42.292969 97.933594 41.40625 97.933594 39.519531 Z M 112.609375 23.183594 L 105.804688 23.183594 L 113.234375 47.800781 L 119.492188 47.800781 L 123.539062 32.683594 L 127.582031 47.800781 L 133.835938 47.800781 L 141.265625 23.183594 L 134.679688 23.183594 L 130.304688 38.851562 L 126.1875 23.183594 L 121.035156 23.183594 L 116.988281 38.851562 Z M 144.910156 23.183594 L 151.714844 23.183594 L 151.714844 47.910156 L 144.910156 47.910156 Z M 170.4375 33.234375 L 165.402344 32.015625 C 163.851562 31.578125 163.191406 31.019531 163.191406 30.019531 C 163.191406 28.464844 164.847656 27.695312 166.464844 27.695312 C 168.785156 27.695312 169.847656 28.800781 170.292969 30.132812 L 176.765625 30.132812 C 175.886719 25.511719 172.496094 22.519531 166.355469 22.519531 C 160.875 22.519531 156.605469 25.734375 156.605469 30.578125 C 156.605469 34.792969 159.222656 36.636719 162.972656 37.523438 L 167.898438 38.632812 C 169.667969 39.078125 170.402344 39.628906 170.402344 40.738281 C 170.402344 42.40625 168.96875 43.183594 166.90625 43.183594 C 164.8125 43.183594 163.304688 42.183594 162.753906 40.410156 L 155.984375 40.410156 C 156.757812 45.472656 160.910156 48.351562 166.945312 48.351562 C 172.648438 48.351562 177.023438 45.363281 177.023438 40.296875 C 177.023438 36.675781 174.707031 34.234375 170.4375 33.234375 Z M 189.828125 39.519531 L 189.828125 28.691406 L 195.199219 28.691406 L 195.199219 23.183594 L 189.828125 23.183594 L 189.828125 16.453125 L 183.019531 16.453125 L 183.019531 23.183594 L 179.300781 23.183594 L 179.300781 28.691406 L 183.019531 28.691406 L 183.019531 40.410156 C 183.019531 45.914062 186.183594 48.351562 191.117188 48.351562 C 192.988281 48.351562 194.609375 48.023438 195.492188 47.582031 L 195.492188 41.515625 C 194.71875 42.074219 193.503906 42.40625 192.550781 42.40625 C 190.820312 42.292969 189.828125 41.40625 189.828125 39.519531 Z M 210.09375 22.628906 C 202.957031 22.628906 197.292969 28.355469 197.292969 35.527344 C 197.292969 42.699219 203 48.429688 210.09375 48.429688 C 217.195312 48.429688 222.894531 42.699219 222.894531 35.527344 C 222.894531 28.355469 217.195312 22.628906 210.09375 22.628906 Z M 210.09375 41.738281 C 206.710938 41.738281 203.84375 38.851562 203.84375 35.453125 C 203.84375 32.050781 206.675781 29.167969 210.09375 29.167969 C 213.480469 29.167969 216.351562 32.050781 216.351562 35.453125 C 216.351562 38.851562 213.480469 41.738281 210.09375 41.738281 Z M 148.332031 13.019531 C 150.207031 13.019531 151.714844 14.53125 151.714844 16.453125 C 151.714844 18.375 150.207031 19.894531 148.332031 19.894531 C 146.453125 19.894531 144.945312 18.375 144.945312 16.453125 C 144.945312 14.53125 146.453125 13.019531 148.332031 13.019531 Z M 148.332031 13.019531 "/>
<path style=" stroke:none;fill-rule:nonzero;fill:rgb(30.980392%,0%,54.901961%);fill-opacity:1;" d="M 24.101562 23.847656 L 24.101562 68.019531 L 45.992188 68.019531 L 45.992188 1.777344 L 2.175781 1.777344 L 2.175781 23.847656 Z M 24.101562 23.847656 "/>
<path style=" stroke:none;fill-rule:nonzero;fill:rgb(0%,61.568627%,30.588235%);fill-opacity:1;" d="M 45.992188 1.777344 C 45.992188 14.050781 55.851562 23.847656 67.914062 23.847656 L 67.914062 1.777344 Z M 45.992188 1.777344 "/>
<path style=" stroke:none;fill-rule:nonzero;fill:url(#linear0);" d="M 45.992188 1.777344 C 45.992188 14.050781 55.851562 23.847656 67.914062 23.847656 L 67.914062 1.777344 Z M 45.992188 1.777344 "/>
</g>
</svg>

<svg version="1.1" height="25" width="83.3" viewBox="0 0 83.3 25" xmlns="http://www.w3.org/2000/svg">
 <defs>
  <linearGradient id="a" x1="145.29" x2="203" y1="1023.4" y2="965.71" gradientTransform="matrix(.37957 0 0 -.38262 -5.9368 390.12)" gradientUnits="userSpaceOnUse">
   <stop stop-color="#81bb00" stop-opacity="0" offset="0"/>
   <stop stop-color="#81bb00" offset="1"/>
  </linearGradient>
 </defs>
 <g transform="matrix(.3774 0 0 .3774 -.82161 -.67088)">
  <path d="m97.934 39.52v-10.828h5.3711v-5.5078h-5.3711v-6.7305h-6.8047v6.7305h-3.7188v5.5078h3.7188v11.719c0 5.5039 3.1641 7.9414 8.0898 7.9414 1.8789 0 3.4961-0.32812 4.375-0.76953v-6.0664c-0.76562 0.55859-1.9805 0.89062-2.9375 0.89062-1.6172-0.11328-2.7227-1-2.7227-2.8867zm14.676-16.336h-6.8047l7.4297 24.617h6.2578l4.0469-15.117 4.043 15.117h6.2539l7.4297-24.617h-6.5859l-4.375 15.668-4.1172-15.668h-5.1523l-4.0469 15.668zm32.301 0h6.8047v24.727h-6.8047zm25.527 10.051-5.0352-1.2188c-1.5508-0.4375-2.2109-0.99609-2.2109-1.9961 0-1.5547 1.6562-2.3242 3.2734-2.3242 2.3203 0 3.3828 1.1055 3.8281 2.4375h6.4726c-0.8789-4.6211-4.2695-7.6133-10.41-7.6133-5.4805 0-9.75 3.2148-9.75 8.0586 0 4.2148 2.6172 6.0586 6.3672 6.9453l4.9258 1.1094c1.7695 0.44531 2.5039 0.99609 2.5039 2.1055 0 1.668-1.4336 2.4453-3.4961 2.4453-2.0938 0-3.6016-1-4.1523-2.7734h-6.7695c0.77344 5.0625 4.9258 7.9414 10.961 7.9414 5.7031 0 10.078-2.9883 10.078-8.0547 0-3.6211-2.3164-6.0625-6.5859-7.0625zm19.391 6.2852v-10.828h5.3711v-5.5078h-5.3711v-6.7305h-6.8086v6.7305h-3.7188v5.5078h3.7188v11.719c0 5.5039 3.1641 7.9414 8.0977 7.9414 1.8711 0 3.4922-0.32812 4.375-0.76953v-6.0664c-0.77344 0.55859-1.9883 0.89062-2.9414 0.89062-1.7305-0.11328-2.7227-1-2.7227-2.8867zm20.266-16.891c-7.1367 0-12.801 5.7266-12.801 12.898s5.707 12.902 12.801 12.902c7.1016 0 12.801-5.7305 12.801-12.902s-5.6992-12.898-12.801-12.898zm0 19.109c-3.3828 0-6.25-2.8867-6.25-6.2852 0-3.4023 2.832-6.2852 6.25-6.2852 3.3867 0 6.2578 2.8828 6.2578 6.2852 0 3.3984-2.8711 6.2852-6.2578 6.2852zm-61.762-28.719c1.875 0 3.3828 1.5117 3.3828 3.4336s-1.5078 3.4414-3.3828 3.4414c-1.8789 0-3.3867-1.5195-3.3867-3.4414s1.5078-3.4336 3.3867-3.4336z" fill="#4c008a"/>
  <path d="m24.102 23.848v44.172h21.891v-66.242h-43.816v22.07z" fill="#4c008a"/>
  <path d="m45.992 1.7773c0 12.273 9.8594 22.07 21.922 22.07v-22.07z" fill="#009c4c"/>
  <path d="m45.992 1.7773c0 12.273 9.8594 22.07 21.922 22.07v-22.07z" fill="url(#a)"/>
 </g>
</svg>
